X: 42933
T: William Durette's Clog
R: barndance
M: 4/4
K: Dmajor
dAFA dfed|cBGE B2 BB|AAce agec|defd A2 fe|
dAFA dfed|cBGE B2 BB|AAce agec|dfec d2:|
aaaa bafd|edeg B2 ed|cAce agec|defd A2 fg|
aaaa bafd|edeg B2 ed|cAce agec|dfec d2:|

